X: 1
T: Drummond Castle
R: Jig
C: Trad
M: 6/8
L: 1/8
K: Amin
|: "Am"A2 A a3 | age g3| "C"c2 c edc | "G"Bdg dBG |
"Am"A2 A a3| age g2 g | "C"ege deg | "G"edB A2G :|
|: "Am"c3 edc | dDd dDd |c3 edc | Bdg dBG |
c3 edc | Bdg a2 g |ege deg | edB c2 B:|
